icons/clipboard-arrow-left-outline.svg

<svg xmlns="http://www.w3.org/2000/svg" width="24" height="24" viewBox="0 0 24 24">
  <path d="M16,1 C16.5128358,1 16.9355072,1.38604019 16.9932723,1.88337887 L17,2 L17,3 L18,3 C19.5976809,3 20.9036609,4.24891996 20.9949073,5.82372721 L21,6 L21,20 C21,21.5976809 19.75108,22.9036609 18.1762728,22.9949073 L18,23 L6,23 C4.40231912,23 3.09633912,21.75108 3.00509269,20.1762728 L3,20 L3,6 C3,4.40231912 4.24891996,3.09633912 5.82372721,3.00509269 L6,3 L7,3 L7,2 C7,1.48716416 7.38604019,1.06449284 7.88337887,1.00672773 L8,1 L16,1 Z M7,5 L6,5 C5.48716416,5 5.06449284,5.38604019 5.00672773,5.88337887 L5,6 L5,20 C5,20.5128358 5.38604019,20.9355072 5.88337887,20.9932723 L6,21 L18,21 C18.5128358,21 18.9355072,20.6139598 18.9932723,20.1166211 L19,20 L19,6 C19,5.44771525 18.5522847,5 18,5 L17,5 L17,6 C17,6.51283584 16.6139598,6.93550716 16.1166211,6.99327227 L16,7 L8,7 C7.48716416,7 7.06449284,6.61395981 7.00672773,6.11662113 L7,6 L7,5 Z M8.001,14.059 L8.002,14.059 L8,14.018 L8,14 L8.00004511,13.9904013 L8.00018018,13.980824 L8.0017331,13.9409686 C8.00232561,13.9308872 8.00307004,13.9208131 8.00399798,13.909968 L8.00399798,13.909968 L8.0110178,13.8515331 C8.01362808,13.834051 8.01670217,13.8166247 8.02016515,13.7992059 C8.0246398,13.7772539 8.02983363,13.7555635 8.03584514,13.734007 C8.04009773,13.7185367 8.04472872,13.7031487 8.04954668,13.6882636 C8.05612249,13.6682023 8.06331574,13.6484208 8.07122549,13.628664 L8.07122549,13.628664 L8.09365378,13.5769009 C8.10337664,13.5561086 8.11379392,13.5357061 8.12467117,13.5159379 L8.12467117,13.5159379 L8.14606743,13.4793398 C8.1617187,13.453725 8.17849009,13.4288693 8.19633458,13.4046934 L8.19633458,13.4046934 L8.22,13.374 L8.216,13.378 L8.21968877,13.374551 L8.232,13.359 L8.24220802,13.347434 L8.24220802,13.347434 L8.29289322,13.2928932 L11.2928932,10.2928932 L11.3871006,10.2097046 C11.7793918,9.90467972 12.3466228,9.93240926 12.7071068,10.2928932 C13.0976311,10.6834175 13.0976311,11.3165825 12.7071068,11.7071068 L12.7071068,11.7071068 L11.415,13 L15,13 L15.1166211,13.0067277 C15.6139598,13.0644928 16,13.4871642 16,14 C16,14.5522847 15.5522847,15 15,15 L15,15 L11.415,15 L12.7071068,16.2928932 L12.7902954,16.3871006 C13.0953203,16.7793918 13.0675907,17.3466228 12.7071068,17.7071068 C12.3165825,18.0976311 11.6834175,18.0976311 11.2928932,17.7071068 L11.2928932,17.7071068 L8.29289322,14.7071068 L8.21968877,14.625449 C8.2173721,14.6225624 8.21507113,14.6196628 8.20970461,14.6128994 C8.20517454,14.6070733 8.20071786,14.6012086 8.19631351,14.5951593 C8.17849009,14.5711307 8.1617187,14.546275 8.14599545,14.5207088 C8.13860692,14.5086131 8.13149883,14.4963944 8.12487577,14.484277 C8.11379392,14.4642939 8.10337664,14.4438914 8.09367336,14.4232215 L8.09367336,14.4232215 L8.07110396,14.3710585 C8.06331574,14.3515792 8.05612249,14.3317977 8.04973809,14.3121425 C8.04472872,14.2968513 8.04009773,14.2814633 8.03572097,14.2658396 C8.02983363,14.2444365 8.0246398,14.2227461 8.02024007,14.2007258 C8.01670217,14.1833753 8.01362808,14.165949 8.01101934,14.1489612 C8.00376119,14.1003621 8,14.0506203 8,14 L8.001,14.059 Z M15,3 L9,3 L9,5 L15,5 L15,3 Z"/>
</svg>

<svg xmlns="http://www.w3.org/2000/svg" viewBox="0 0 24 24">
  <path d="M16 1a1 1 0 0 1 1 .88V3h1a3 3 0 0 1 3 2.82V20a3 3 0 0 1-2.82 3H6a3 3 0 0 1-3-2.82V6a3 3 0 0 1 2.82-3H7V2a1 1 0 0 1 .88-1H16zM7 5H6a1 1 0 0 0-1 .88V20a1 1 0 0 0 .88 1H18a1 1 0 0 0 1-.88V6a1 1 0 0 0-1-1h-1v1a1 1 0 0 1-.88 1H8a1 1 0 0 1-1-.88V5zm1 9.06v-.15l.01-.06a1.1 1.1 0 0 1 .06-.22l.02-.05.03-.06.03-.04.05-.08.02-.03.01-.01.01-.01.05-.06 3-3 .1-.08a1 1 0 0 1 1.32 1.5L11.4 13h3.71a1 1 0 0 1-.12 2H11.4l1.3 1.3.08.09a1 1 0 0 1-1.5 1.32l-3-3-.07-.08a3.01 3.01 0 0 1-.1-.15 1.02 1.02 0 0 1-.03-.06l-.02-.05A.95.95 0 0 1 8 14v.06zM15 3H9v2h6V3z"/>
</svg>
